layouts/icon-pack/armor_clothing_feet.svg

<?xml version="1.0" encoding="UTF-8"?>
<svg width="1200pt" height="1200pt" version="1.1" viewBox="0 0 1200 1200" xmlns="http://www.w3.org/2000/svg">
 <g fill="#fff">
  <path d="m535.22 72.938c-17.133 37.641-54.914 124.05-78.07 202.71-2.5 8.375-1.1875 17.43 3.5859 24.75 9.6328 14.555 30.469 40.43 71.461 69.445 8.4414 5.9453 19.164 7.625 29.02 4.5469 9.8555-3.0742 17.719-10.559 21.277-20.25 11.859-32.203 30.281-77.719 50.227-110.77 2.3945-3.957 6.8359-6.2031 11.445-5.7852 4.6055 0.41797 8.5703 3.4297 10.211 7.7539 14.062 37.031 44.531 112.5 72.656 158.98 3.2344 5.3125 7.8867 9.6133 13.438 12.418 5.5508 2.8008 11.773 3.9961 17.969 3.4492 51.562-4.5469 191.65-27.445 293.55-142.69 4.8359-5.5508 7.4375-12.699 7.3047-20.062-0.13281-7.3594-2.9961-14.41-8.0312-19.781l-32.812-35.156c-12.879-13.781-20.035-31.949-20.016-50.812v-66.234c0-7.5352-3.4258-14.66-9.3125-19.363-5.8906-4.7031-13.598-6.4688-20.945-4.8008-66.773 15.141-234.38 43.688-404.06-1.9219-5.6445-1.5234-11.645-0.99609-16.938 1.4883-5.2891 2.4844-9.5273 6.7656-11.961 12.082z"/>
  <path d="m149.48 977.72c30.82 38.156 105.66 121.34 198.19 157.2 11.449 4.4297 24.074 4.8008 35.766 1.0547 51.164-16.406 208.08-63.422 320.09-63.281 11.133-0.015625 21.863 4.168 30.047 11.719 12.941 11.816 24.293 25.266 33.773 40.008 6.4023 10.492 17.781 16.922 30.07 16.992h127.85c11.762 0.03125 22.75-5.8633 29.227-15.68 24.492-37.336 70.102-140.74-28.125-302.11-2.5273-4.1797-6.9023-6.8945-11.77-7.3125-4.8633-0.41797-9.6367 1.5156-12.84 5.2031-9.6133 11.375-20.348 21.758-32.039 30.984-5.0273 3.9062-11.41 5.6406-17.723 4.8125-6.3164-0.82813-12.035-4.1484-15.887-9.2188-3.7227-5.0898-5.3164-11.43-4.4414-17.672 0.875-6.2461 4.1484-11.902 9.1289-15.773 10.598-8.4648 20.223-18.09 28.688-28.688 17.848-22.305 31.055-47.957 38.836-75.445 18.469-63.281 46.617-169.27 63.891-279.82 0.62891-3.7734-0.16406-7.6484-2.2227-10.875-2.0586-3.2266-5.2383-5.5742-8.9258-6.5977-3.6875-1.0195-7.6211-0.64062-11.047 1.0664-58.59 29.09-122.04 47.117-187.17 53.18-2.3438 0.21094-4.6875 0.30469-7.1484 0.30469-28.215-0.10156-54.371-14.793-69.141-38.836-12.098-20.324-23.09-41.281-32.93-62.789-2.3242-4.9727-7.4102-8.0625-12.895-7.8359-5.4844 0.22266-10.297 3.7188-12.207 8.8672-0.1875 0.49219-0.375 0.98438-0.53906 1.5-10.055 26.953-32.672 47.602-60.586 53.203-1.3828 0.28125-2.7891 0.53906-4.1719 0.72656-8.4023 1.1172-15.918 5.7812-20.648 12.816-4.7305 7.0312-6.2148 15.754-4.0781 23.957 24.375 90.891 51 208.59 58.711 311.72 1.5586 20.367-5.0234 40.52-18.305 56.039-31.43 36.633-98.438 102.28-191.95 126.28-13.668 3.5039-28.168 1.4375-40.312-5.7422-15.379-8.8828-29.332-20.031-41.391-33.07-4.2188-4.7266-6.875-10.645-7.5938-16.938-0.72266-6.2969 0.52344-12.66 3.5625-18.219 7.0312-12.773 17.414-29.812 28.898-41.531 5.4453-5.4492 12.762-8.6172 20.461-8.8594 7.4297-0.25781 18.094-0.60938 29.625-0.86719 4.8398-0.066406 9.1367-3.0977 10.824-7.6328 1.6875-4.5352 0.41406-9.6406-3.207-12.852-16.523-14.766-41.859-34.219-71.391-46.219-7-2.793-14.645-3.5625-22.059-2.2148-7.4141 1.3477-14.301 4.7539-19.871 9.832-30.281 27.328-92.016 88.711-129.87 165.84-3.3516 6.8516-4.6719 14.516-3.8125 22.094 0.85938 7.5781 3.8633 14.754 8.6641 20.68z"/>
 </g>
</svg>

<?xml version="1.0" encoding="UTF-8" standalone="no"?>
<!DOCTYPE svg PUBLIC "-//W3C//DTD SVG 1.1//EN" "http://www.w3.org/Graphics/SVG/1.1/DTD/svg11.dtd">
<svg width="100%" height="100%" viewBox="0 0 435 512" version="1.1" xmlns="http://www.w3.org/2000/svg" xmlns:xlink="http://www.w3.org/1999/xlink" xml:space="preserve" xmlns:serif="http://www.serif.com/" style="fill-rule:evenodd;clip-rule:evenodd;stroke-linejoin:round;stroke-miterlimit:2;">
    <g transform="matrix(1,0,0,1,-140.565,-58.5115)">
        <g transform="matrix(0.472804,0,0,0.472804,74.1056,30.847)">
            <path d="M535.22,72.938C518.087,110.579 480.306,196.988 457.15,275.648C454.65,284.023 455.963,293.078 460.736,300.398C470.369,314.953 491.205,340.828 532.197,369.843C540.638,375.788 551.361,377.468 561.217,374.39C571.072,371.316 578.936,363.831 582.494,354.14C594.353,321.937 612.775,276.421 632.721,243.37C635.115,239.413 639.557,237.167 644.166,237.585C648.771,238.003 652.736,241.014 654.377,245.339C668.439,282.37 698.908,357.839 727.033,404.319C730.267,409.631 734.92,413.932 740.471,416.737C746.022,419.537 752.244,420.733 758.44,420.186C810.002,415.639 950.09,392.741 1051.99,277.496C1056.83,271.945 1059.43,264.797 1059.3,257.434C1059.16,250.074 1056.3,243.024 1051.26,237.653L1018.45,202.497C1005.57,188.716 998.416,170.548 998.435,151.685L998.435,85.451C998.435,77.916 995.01,70.791 989.123,66.088C983.232,61.385 975.525,59.619 968.178,61.287C901.405,76.428 733.798,104.975 564.118,59.365C558.473,57.842 552.473,58.369 547.18,60.853C541.891,63.338 537.653,67.619 535.219,72.935L535.22,72.938Z" style="fill:white;fill-rule:nonzero;"/>
            <path d="M149.48,977.72C180.3,1015.88 255.14,1099.06 347.67,1134.92C359.119,1139.35 371.744,1139.72 383.436,1135.98C434.6,1119.57 591.516,1072.55 703.526,1072.69C714.659,1072.68 725.389,1076.86 733.573,1084.41C746.514,1096.23 757.866,1109.68 767.346,1124.42C773.748,1134.91 785.127,1141.34 797.416,1141.41L925.266,1141.41C937.028,1141.44 948.016,1135.55 954.493,1125.73C978.985,1088.4 1024.6,984.993 926.368,823.623C923.841,819.443 919.466,816.728 914.598,816.31C909.735,815.892 904.961,817.826 901.758,821.513C892.145,832.888 881.41,843.271 869.719,852.497C864.692,856.404 858.309,858.138 851.996,857.31C845.68,856.482 839.961,853.161 836.109,848.091C832.386,843.001 830.793,836.661 831.668,830.419C832.543,824.173 835.816,818.517 840.797,814.646C851.395,806.181 861.02,796.556 869.485,785.958C887.333,763.653 900.54,738.001 908.321,710.513C926.79,647.232 954.938,541.243 972.212,430.693C972.84,426.92 972.047,423.045 969.989,419.818C967.93,416.591 964.751,414.244 961.063,413.22C957.376,412.201 953.442,412.58 950.016,414.287C891.426,443.377 827.976,461.404 762.846,467.467C760.502,467.678 758.159,467.771 755.698,467.771C727.483,467.67 701.327,452.978 686.557,428.935C674.459,408.611 663.467,387.654 653.627,366.146C651.302,361.174 646.216,358.084 640.732,358.31C635.247,358.533 630.435,362.029 628.525,367.178C628.337,367.67 628.15,368.162 627.986,368.678C617.931,395.631 595.314,416.28 567.4,421.881C566.017,422.162 564.61,422.42 563.228,422.607C554.825,423.724 547.31,428.388 542.58,435.423C537.849,442.454 536.365,451.177 538.502,459.38C562.877,550.271 589.502,667.97 597.213,771.1C598.771,791.467 592.189,811.62 578.908,827.139C547.478,863.772 480.47,929.419 386.958,953.419C373.29,956.923 358.79,954.857 346.646,947.677C331.267,938.794 317.314,927.646 305.255,914.607C301.036,909.88 298.38,903.962 297.661,897.669C296.938,891.372 298.184,885.009 301.223,879.45C308.254,866.677 318.637,849.638 330.121,837.919C335.567,832.47 342.883,829.302 350.582,829.06C358.012,828.802 368.676,828.45 380.207,828.192C385.047,828.126 389.344,825.095 391.031,820.56C392.719,816.024 391.445,810.919 387.824,807.708C371.301,792.942 345.965,773.489 316.433,761.489C309.433,758.696 301.788,757.926 294.374,759.274C286.96,760.622 280.073,764.028 274.503,769.106C244.222,796.434 182.487,857.817 144.633,934.946C141.282,941.797 139.961,949.462 140.821,957.04C141.68,964.618 144.684,971.794 149.485,977.72L149.48,977.72Z" style="fill:white;fill-rule:nonzero;"/>
        </g>
    </g>
</svg>
